files/icons/mail.svg

<svg width="47" height="35" viewBox="0 0 47 35" fill="none" xmlns="http://www.w3.org/2000/svg">
<path fill-rule="evenodd" clip-rule="evenodd" d="M40.5957 0.821075C44.0947 0.821075 46.931 3.6575 46.931 7.15638V28.274C46.931 31.773 44.0947 34.6093 40.5957 34.6093H6.80747C3.30859 34.6093 0.472168 31.773 0.472168 28.274V7.15638C0.472168 3.6575 3.30859 0.821075 6.80747 0.821075H40.5957ZM39.018 5.04461H8.38534L22.3932 16.1033C23.1604 16.7092 24.2428 16.7092 25.0103 16.1033L39.018 5.04461ZM4.6957 7.51284V28.274C4.6957 29.4404 5.64118 30.3858 6.80747 30.3858H40.5957C41.7621 30.3858 42.7075 29.4404 42.7075 28.274V7.51288L27.6272 19.4184C25.3256 21.2355 22.0777 21.2355 19.776 19.4184L4.6957 7.51284Z" fill="#FAE5D1"/>
</svg>

<svg width="47" height="35" fill="none" xmlns="http://www.w3.org/2000/svg">
  <path fill-rule="evenodd" clip-rule="evenodd" d="M40.596.821a6.335 6.335 0 0 1 6.335 6.335v21.118a6.335 6.335 0 0 1-6.335 6.335H6.807a6.335 6.335 0 0 1-6.335-6.335V7.156A6.335 6.335 0 0 1 6.807.821h33.789Zm-1.578 4.224H8.385l14.008 11.058c.767.606 1.85.606 2.617 0L39.018 5.045ZM4.696 7.513v20.761c0 1.166.945 2.112 2.111 2.112h33.789a2.112 2.112 0 0 0 2.112-2.112V7.513l-15.08 11.905a6.335 6.335 0 0 1-7.852 0L4.696 7.513Z" fill="#FAE5D1"/>
</svg>
